X: 18251
T: Humours Of Lissadell, The
R: reel
M: 4/4
K: Edorian
"Em" eB ~B2 eBdB|"D" AFFD EDB,A,|"Em" B,E ~E2 B,EFE|"Bm" FB ~B2 FBdf|
"Em" eB ~B2 eBdB|"D" AFFD EDB,A,|"Em" B,EED EFGA|B/c/d ed "D" e3 f:|
|:"Em" eB ~B2 "A" A2 FA|"D" d2 fd "G" edef|"D" df ~f2 dfbf|afdf "G" edBA|
"D" d2 fd "G" BcdB|"D" AF ~F2 ABde|~f2 ef dfbf|afdf "Em" e3 f:|

